packages/icons/raw/imported/SportHandball.svg

<svg width="32" height="32" viewBox="0 0 32 32" fill="none" xmlns="http://www.w3.org/2000/svg">
<path d="M10.3765 11.144L11.7211 12.4549C11.8982 12.6417 12.1206 12.7564 12.3867 12.782L14.9589 13.0302M18.2084 11.9928L22.7373 7.81455C23.1067 7.47418 23.7051 7.48533 24.0749 7.84045C24.4464 8.21238 24.4349 8.79024 24.0498 9.14906L20.1291 12.7438C19.8398 13.0087 19.7399 13.4083 19.8471 13.7714L21.298 18.1972L24.8512 24.7844C25.1702 25.3309 24.9602 26.0294 24.3751 26.3224L24.2916 26.3642C23.7413 26.6538 23.0372 26.4661 22.7373 25.9347L19.7989 20.7312C19.5458 20.3141 18.9597 20.2509 18.6251 20.5879L15.9895 23.0752C15.7177 23.3385 15.3469 23.4924 14.9573 23.4614L10.8162 23.1584C10.1605 23.1018 9.6641 22.5381 9.74011 21.9032C9.80214 21.3036 10.3718 20.8595 10.991 20.9026L14.1789 21.1602C14.3911 21.1741 14.6122 21.1022 14.7551 20.953L15.9894 19.8878C16.3397 19.5322 16.4799 19.01 16.326 18.5327L15.3661 15.655C15.2398 15.2768 14.8959 15.004 14.4872 14.9579L11.7185 14.6775C11.4698 14.6501 11.2491 14.5523 11.0911 14.3807L8.69607 12.1888C8.42177 11.9095 8.38079 11.5062 8.52233 11.1705M9.05615 5.50301C10.2537 5.44155 11.276 6.32925 11.3396 7.48574C11.4033 8.64224 10.4841 9.62959 9.28662 9.69105C8.08911 9.75252 7.06676 8.86481 7.00312 7.70832C6.93947 6.55182 7.85865 5.56447 9.05615 5.50301ZM17.8016 9.07738C17.9294 10.3348 16.9775 11.4541 15.6756 11.5775C14.3736 11.7009 13.2146 10.7816 13.0869 9.52421C12.9591 8.26684 13.911 7.14751 15.2129 7.02412C16.5149 6.90073 17.6739 7.82001 17.8016 9.07738Z" stroke="black" stroke-miterlimit="10" stroke-linecap="round" stroke-linejoin="round"/>
</svg>

<svg width="32" height="32" fill="none" xmlns="http://www.w3.org/2000/svg"><path d="m10.377 11.144 1.344 1.31c.177.188.4.302.666.328l2.572.248m3.25-1.037 4.528-4.178a.988.988 0 0 1 1.338.025c.371.372.36.95-.025 1.31l-3.92 3.594c-.29.265-.39.664-.283 1.027l1.451 4.426 3.553 6.587a1.096 1.096 0 0 1-.476 1.538l-.083.042c-.55.29-1.255.102-1.555-.43L19.8 20.732a.757.757 0 0 0-1.174-.143l-2.636 2.487a1.337 1.337 0 0 1-1.032.386l-4.14-.303c-.656-.056-1.153-.62-1.077-1.255.062-.6.632-1.043 1.251-1l3.188.257a.74.74 0 0 0 .576-.207l1.234-1.065c.35-.356.49-.878.337-1.355l-.96-2.878a1.044 1.044 0 0 0-.879-.697l-2.768-.28a.98.98 0 0 1-.628-.297l-2.395-2.192c-.274-.28-.315-.683-.174-1.018m.534-5.668c1.198-.061 2.22.826 2.284 1.983.063 1.156-.856 2.144-2.053 2.205-1.198.062-2.22-.826-2.284-1.983-.064-1.156.856-2.144 2.053-2.205Zm8.746 3.574c.127 1.258-.825 2.377-2.126 2.5-1.302.124-2.461-.795-2.59-2.053-.127-1.257.825-2.376 2.127-2.5 1.302-.123 2.46.796 2.589 2.053Z" stroke="#000" stroke-miterlimit="10" stroke-linecap="round" stroke-linejoin="round"/></svg>
